packages/design-assets/icons/16px/Pipeline.svg

<svg width="16" height="16" xmlns="http://www.w3.org/2000/svg"><path d="M12 6h4v4h-4V6zM0 12h4v4H0v-4zm13-9H5V1h9c.6 0 1 .4 1 1v3h-2V3zM3 9v2H1V8c0-.6.4-1 1-1h9v2H3zM0 0h4v4H0V0zm5 13h10v2H5v-2z" fill="#818F99" fill-rule="evenodd"/></svg>

<?xml version="1.0" encoding="UTF-8"?>
<svg width="16px" height="16px" viewBox="0 0 16 16" version="1.1" xmlns="http://www.w3.org/2000/svg" xmlns:xlink="http://www.w3.org/1999/xlink">
    <!-- Generator: Sketch 54.1 (76490) - https://sketchapp.com -->
    <title>Icons/16px/Pipeline</title>
    <desc>Created with Sketch.</desc>
    <g id="Icons/16px/Pipeline" stroke="none" stroke-width="1" fill="none" fill-rule="evenodd">
        <path d="M12,6 L16,6 L16,10 L12,10 L12,6 Z M0,12 L4,12 L4,16 L0,16 L0,12 Z M13,3 L5,3 L5,1 L14,1 C14.6,1 15,1.4 15,2 L15,5 L13,5 L13,3 Z M3,9 L3,11 L1,11 L1,8 C1,7.4 1.4,7 2,7 L11,7 L11,9 L3,9 Z M0,0 L4,0 L4,4 L0,4 L0,0 Z M5,13 L15,13 L15,15 L5,15 L5,13 Z" id="i-16-pipeline" fill="#818F99"></path>
    </g>
</svg>
